X:1
T:Title
%%score 1 2 3 4
L:1/8
M:4/4
K:Ab
V:1 treble nm="Church Organ, Church Organ"
V:2 treble nm="French Horn, French Horn"
V:3 bass nm="Trombone, Trombone"
V:4 bass nm="Tuba, Tuba"
V:1
 E2 A2 c2 B2 | B2 c6 | e2 d2 c2 B2 | B2 A6 | A2 G2 F2 E2 | A2 A2 B2 c2 | c2 B2 A2 A2 | G2 A6 |] %8
w: By~Genevan~Psalter,~1551 * * *||||||||
V:2
 C2 C2 E2 F2 | E2 E6 | E2 A2 A2 A2 | G2 A6 | F2 E2 D2 C2 | E2 F2 F2 =E2 | E2 D2 E2 F2 | E2 E6 |] %8
w: Let~ sigh ing~ cease~|and~ woe~|God~ from~ on~ high~|hath~ heard,~|Hea ven�s~ gate~ is~|opening~ wide,~ and~ lo!~|The~ long~ ex pect|ed~ Word.~|
V:3
 A,2 A,2 A,2 A,2 | G,2 A,6 | B,2[K:treble] D2 E2 E2- | ED C6 | C2 C2[K:bass] A,2 A,2 | %5
 A,2 C2 B,2 G,2 | A,2 F,G, A,2 D2 | B,2 C6 |] %8
V:4
 A,2 F,2 C,2 D,2 | E,2 A,6 | G,2 F,2 A,2 E,2 | E,2 A,,6 | F,2 C,2 D,2 A,,2 | C,2 F,2 D,2 C,2 | %6
 A,,2 B,,2 C,2 D,2 | E,2 A,,6 |] %8

